X:40
T:Country Courtship - Knapman
%%VWML:SBG-1-2-804-0
F:http://www.vwml.org/record/SBG/1/2/804
Z:Original Sibelius transcriptions by M. & S. Graebe
M:6/8
I:linebreak $
K:G
V:1 treble nm="P1"
V:1
 d2 | (BA) B G2 B | d2 e e2 d | e2 A (AB) c | d3- d2 d | (BA) B G2 B |$ d2 e d2 d | ef g fe d | %8
 g3- g2 d | (dB) d g2 f | (ed) c B2 G |$ (AB) c A2 A | B3- B2 d | (dB) d g2 e | (ed) c B2 G | %15
 (AB) c B2 A | (G3 G2) z | %17

